Origami/64x64/apps/blogilo.svg

<svg width="64" height="64" version="1" xmlns="http://www.w3.org/2000/svg">
 <path d="m10 56v2c0 1.662 1.338 3 3 3h38c1.662 0 3-1.338 3-3v-2c0 1.662-1.338 3-3 3h-38c-1.662 0-3-1.338-3-3z" style="opacity:.2"/>
 <path d="m54 57v-50c0-1.662-1.338-3-3-3h-38c-1.662 0-3 1.338-3 3v50c0 1.662 1.338 3 3 3h38c1.662 0 3-1.338 3-3z" style="fill:#35b9f5"/>
 <path d="m32 19c-7.731588 0-14 6.268125-14 14s6.268412 14 14 14 14-6.268125 14-14-6.268412-14-14-14zm0.771484 4 0.04492 2e-3c3.11866 0.085304 5.161686 2.230364 5.183596 5.214797 0.081423 0.896295 0 2.783203 0 2.783203 1.048434 0.03073 2.400067-0.09775 3.238281 0.972656 0.74021 0.945163 0.745736 2.018764 0.751953 3.50586 0.0018 0.304325 0.0098 1.080078 0.0098 1.080078-0.02013 1.925148-0.621451 3.542957-1.738281 4.677734-1.118014 1.138-2.695571 1.748456-4.564453 1.763672h-7.304688c-0.04589 5.73e-4 -0.09142 0-0.136719 0-2.094498 0-3.711249-0.5835-4.804687-1.734375-1.093735-1.15146-1.445313-2.707753-1.445313-4.871094 0.0021-0.149236-0.01103-0.296069-2e-3 -0.439453l0.0039-7.605469c0.09031-1.885936 0.942075-3.050991 1.583985-3.71875 1.037183-1.079475 2.504112-1.626953 4.359375-1.626953h0.05078l4.769551-0.003906zm-0.583984 4-4.316406 0.0059c-1.018716-0.010652-1.854789 0.862028-1.871094 1.964803-0.01599 1.102775 0.795353 2.011616 1.8125 2.029297l4.345703-2e-3c1.003664 0 1.825179-0.798392 1.841797-1.890625 0.01599-1.103067-0.795352-2.090033-1.8125-2.107375zm-4.392578 8c-0.991063 0-1.794922 0.895472-1.794922 2 0 1.104529 0.803859 2 1.794922 2h8.410156c0.991063 0 1.794922-0.895471 1.794922-2 0-1.104528-0.803859-2-1.794922-2h-8.410156z" style="opacity:.2"/>
 <path d="m32 18c-7.731588 0-14 6.268125-14 14s6.268412 14 14 14 14-6.268125 14-14-6.268412-14-14-14zm0.771484 4l0.044922 0.001953c3.118658 0.085351 5.161684 2.230411 5.183594 5.214844 0.081423 0.896295 0 2.783203 0 2.783203 1.048434 0.03073 2.400067-0.09775 3.238281 0.972656 0.74021 0.945163 0.745736 2.018764 0.751953 3.50586 0.0018 0.304325 0.009766 1.080078 0.009766 1.080078-0.02013 1.925148-0.621451 3.542957-1.738281 4.677734-1.118014 1.138-2.695571 1.748456-4.564453 1.763672h-7.304688c-0.04589 5.73e-4 -0.09142 0-0.136719 0-2.094498 0-3.711249-0.5835-4.804687-1.734375-1.093735-1.15146-1.445313-2.707753-1.445313-4.871094 0.0021-0.149236-0.011033-0.296069-0.001953-0.439453l0.003906-7.605469c0.09031-1.885936 0.942075-3.050991 1.583985-3.71875 1.037183-1.079475 2.504112-1.626953 4.359375-1.626953h0.050781l4.769531-0.003906zm-0.583984 4l-4.316406 0.005859c-1.018716-0.010611-1.854789 0.862069-1.871094 1.964844-0.01599 1.102775 0.795353 2.011616 1.8125 2.029297l4.345703-0.001953c1.003664 0 1.825179-0.798392 1.841797-1.890625 0.01599-1.103114-0.795352-2.09008-1.8125-2.107422zm-4.392578 8c-0.991063 0-1.794922 0.895472-1.794922 2 0 1.104529 0.803859 2 1.794922 2h8.410156c0.991063 0 1.794922-0.895471 1.794922-2 0-1.104528-0.803859-2-1.794922-2h-8.410156z" style="fill:#ffffff"/>
 <path d="m13 4c-1.662 0-3 1.338-3 3v1c0-1.662 1.338-3 3-3h38c1.662 0 3 1.338 3 3v-1c0-1.662-1.338-3-3-3h-38z" style="fill:#ffffff;opacity:.1"/>
</svg>

<svg xmlns="http://www.w3.org/2000/svg" width="64" height="64" version="1">
 <path style="opacity:0.2" d="m 10,56 0,2 c 0,1.662 1.338,3 3,3 l 38,0 c 1.662,0 3,-1.338 3,-3 l 0,-2 c 0,1.662 -1.338,3 -3,3 l -38,0 c -1.662,0 -3,-1.338 -3,-3 z"/>
 <path style="fill:#35b9f5" d="M 54,57 54,7 C 54,5.338 52.662,4 51,4 L 13,4 c -1.662,0 -3,1.338 -3,3 l 0,50 c 0,1.662 1.338,3 3,3 l 38,0 c 1.662,0 3,-1.338 3,-3 z"/>
 <path style="opacity:0.2" d="m 32,19 c -7.731588,0 -14,6.268125 -14,14 0,7.731875 6.268412,14 14,14 7.731588,0 14,-6.268125 14,-14 0,-7.731875 -6.268412,-14 -14,-14 z m 0.771484,4 0.04492,0.002 C 35.935064,23.087304 37.97809,25.232364 38,28.216797 38.081423,29.113092 38,31 38,31 c 1.048434,0.03073 2.400067,-0.09775 3.238281,0.972656 0.74021,0.945163 0.745736,2.018764 0.751953,3.50586 0.0018,0.304325 0.0098,1.080078 0.0098,1.080078 -0.02013,1.925148 -0.621451,3.542957 -1.738281,4.677734 -1.118014,1.138 -2.695571,1.748456 -4.564453,1.763672 l -7.304688,0 c -0.04589,5.73e-4 -0.09142,0 -0.136719,0 -2.094498,0 -3.711249,-0.5835 -4.804687,-1.734375 -1.093735,-1.15146 -1.445313,-2.707753 -1.445313,-4.871094 0.0021,-0.149236 -0.01103,-0.296069 -0.002,-0.439453 l 0.0039,-7.605469 c 0.09031,-1.885936 0.942075,-3.050991 1.583985,-3.71875 1.037183,-1.079475 2.504112,-1.626953 4.359375,-1.626953 l 0.05078,0 L 32.771484,23 Z m -0.583984,4 -4.316406,0.0059 C 26.852378,26.995248 26.016305,27.867928 26,28.970703 25.98401,30.073478 26.795353,30.982319 27.8125,31 l 4.345703,-0.002 c 1.003664,0 1.825179,-0.798392 1.841797,-1.890625 C 34.01599,28.004308 33.204648,27.017342 32.1875,27 Z m -4.392578,8 C 26.803859,35 26,35.895472 26,37 c 0,1.104529 0.803859,2 1.794922,2 l 8.410156,0 C 37.196141,39 38,38.104529 38,37 38,35.895472 37.196141,35 36.205078,35 l -8.410156,0 z"/>
 <path style="fill:#ffffff" d="M 32 18 C 24.268412 18 18 24.268125 18 32 C 18 39.731875 24.268412 46 32 46 C 39.731588 46 46 39.731875 46 32 C 46 24.268125 39.731588 18 32 18 z M 32.771484 22 L 32.816406 22.001953 C 35.935064 22.087304 37.97809 24.232364 38 27.216797 C 38.081423 28.113092 38 30 38 30 C 39.048434 30.03073 40.400067 29.90225 41.238281 30.972656 C 41.978491 31.917819 41.984017 32.99142 41.990234 34.478516 C 41.992034 34.782841 42 35.558594 42 35.558594 C 41.97987 37.483742 41.378549 39.101551 40.261719 40.236328 C 39.143705 41.374328 37.566148 41.984784 35.697266 42 L 28.392578 42 C 28.346688 42.000573 28.301158 42 28.255859 42 C 26.161361 42 24.54461 41.4165 23.451172 40.265625 C 22.357437 39.114165 22.005859 37.557872 22.005859 35.394531 C 22.007959 35.245295 21.994826 35.098462 22.003906 34.955078 L 22.007812 27.349609 C 22.098122 25.463673 22.949887 24.298618 23.591797 23.630859 C 24.62898 22.551384 26.095909 22.003906 27.951172 22.003906 L 28.001953 22.003906 L 32.771484 22 z M 32.1875 26 L 27.871094 26.005859 C 26.852378 25.995248 26.016305 26.867928 26 27.970703 C 25.98401 29.073478 26.795353 29.982319 27.8125 30 L 32.158203 29.998047 C 33.161867 29.998047 33.983382 29.199655 34 28.107422 C 34.01599 27.004308 33.204648 26.017342 32.1875 26 z M 27.794922 34 C 26.803859 34 26 34.895472 26 36 C 26 37.104529 26.803859 38 27.794922 38 L 36.205078 38 C 37.196141 38 38 37.104529 38 36 C 38 34.895472 37.196141 34 36.205078 34 L 27.794922 34 z"/>
 <path style="opacity:0.1;fill:#ffffff" d="M 13 4 C 11.338 4 10 5.338 10 7 L 10 8 C 10 6.338 11.338 5 13 5 L 51 5 C 52.662 5 54 6.338 54 8 L 54 7 C 54 5.338 52.662 4 51 4 L 13 4 z"/>
</svg>
